X: 1737
T: Muttonbirders Jig
B: australian traditional tunes wiki
M:6/8
L:1/8
R: Jig
Q: 3/8=100
K:G
V:1 
B,2C||"G"D2BB2A|A2GF2G|"C"AGGG2C|E3-E2B|"D7"AAAA2A|B2A AGE|F2EF2G|A3B,2C|
"G"D2BB2A|A2GF2G|"C"AGG G2C|E3-E2A/B/|"D7"c2Bc2A|F2EF2E|D2D DEF|"G"G3B2c||
|:"G"d2^cd2c|d2b-b3|"D7"c2Bc2B|c2a-a3|"G"g3-g2f|"C"e3d2c|BcB ABA|1"G"G4Bc:|2"G"G4||
% abcbook-tune_id 6342d53aed80735b904448c7


% abcbook-boost 0
% abcbook-tablature 
% abcbook-transpose 
% abcbook-lastupdated 1665324380971
% abcbook-soundfonts 
% abcbook-repeats 1
% NFF Book 2007

